src/shared/ui/icons/SearchIcon.svg

<svg
      
      
      viewBox="0 0 21 22"
      xmlns="http://www.w3.org/2000/svg"
    >
      <path
        d="M21.0675 21.2968L14.8957 14.8782C16.4699 13.2994 17.4452 11.1229 17.4452 8.72258C17.4452 3.9127 13.5325 0 8.72258 0C3.9127 0 0 3.9127 0 8.72258C0 13.5325 3.9127 17.4452 8.72258 17.4452C10.8339 17.4452 12.7715 16.6904 14.2818 15.4381L20.4686 21.8725C20.55 21.9576 20.6588 22 20.768 22C20.8719 22 20.9753 21.9614 21.0559 21.8841C21.2212 21.725 21.2262 21.4621 21.0675 21.2968ZM8.72258 16.6144C4.37084 16.6144 0.830722 13.0743 0.830722 8.72258C0.830722 4.37084 4.37084 0.830722 8.72258 0.830722C13.0743 0.830722 16.6144 4.37084 16.6144 8.72258C16.6144 13.0743 13.0739 16.6144 8.72258 16.6144Z"
        
      />
    </svg>

<svg viewBox="0 0 21 22" xmlns="http://www.w3.org/2000/svg">
    <path d="m21.067 21.297-6.171-6.419a8.695 8.695 0 0 0 2.55-6.155C17.445 3.913 13.531 0 8.722 0 3.913 0 0 3.913 0 8.723c0 4.81 3.913 8.722 8.723 8.722a8.683 8.683 0 0 0 5.559-2.007l6.187 6.434a.412.412 0 0 0 .587.012.416.416 0 0 0 .011-.587ZM8.723 16.614C4.37 16.614.83 13.074.83 8.723.83 4.37 4.37.83 8.723.83c4.351 0 7.891 3.54 7.891 7.892 0 4.351-3.54 7.891-7.891 7.891Z"/>
</svg>
